X: 2187
T: Şu Dere Yonca
C: (Anonim)
O: Turkey
F: http://compmusic.upf.edu/node/140
N: mahur--turku--sofyan--su_dere--
N: makam= mahur
N: form= turku
N: usul= sofyan = 4/4
M: 4/4
L: 1/16
K: C ^9/8f   
Q: 1/4=105
%%MIDI tuningsystem comma53
dedc d2e2 dedc B4  | cdcB c2d2 cdcB A4  | 
w:  ARANAĞME  |   | 
BcBA B2c2 BcBA G2F2  | G2{A}GA Bcde dcBc d4  | 
w:   |   | 
dedc d2e2 dedc B4  | cdcB c2d2 cdcB A4  | 
w:  ARANAĞME  |   | 
BcBA B2c2 BcBA G2F2  | G6d2 e2f2 g4  | g16  | g16  | \
w:   |   |  Ah   |   | 
f4 g4 a4 g2f2  | 
w:  Şu  de re  yon  | 
g6d2 e2f2 g4  | a4 a2f2 gfga e4  | =fefg e2d2 e4 d2c2  | 
w:  ca   SAZ  |  Aç  kol *  la *  *  *  rın   |  sar  *  *  *  boy *  nu ma   | 
edd6 G2B2 d4  | edc6 c4 B2A2  | z2A4c2 B2A2 G2F2  | \
w:  A *  lim  SAZ  |  A *  lim   SAZ  |  Boy lu  bo *  yun  | 
G6AB cdef g4  | 
w:  ca   SAZ  | 
a4 a2f2 gfga e4  | =fefg e2d2 e4 d2c2  | \
w:  Aç  kol *  la *  *  *  rın   |  sar  *  *  *  boy *  nu ma   | 
edd6 G2B2 d4  | 
w:  A *  lim  SAZ  | 
edc6 c4 B2A2  | z2A4c2 B2A2 G2F2  | G2g4fe dcBA G4  | 
w:  A *  lim   SAZ  |  Boy lu  bo *  yun  |  ca   SAZ  | 
dedc d2e2 dedc B4  | cdcB c2d2 cdcB A4  | 
w:  ARANAĞME  |   | 
BcBA B2c2 BcBA G2F2  | G2{A}GA Bcde dcBc d4  | 
w:   |   | 
dedc d2e2 dedc B4  | cdcB c2d2 cdcB A4  | 
w:  ARANAĞME  |   | 
BcBA B2c2 BcBA G2F2  | G6d2 e2f2 g4  | g16  | g16  | \
w:   |   |  Ah   |   | 
f4 g4 a4 g2f2  | 
w:  Şu  de re  yon  | 
g6d2 e2f2 g4  | a4 a2f2 gfga e4  | =fefg e2d2 e4 d2c2  | 
w:  ca   SAZ  |  Aç  kol *  la *  *  *  rın   |  sar  *  *  *  boy *  nu ma   | 
edd6 G2B2 d4  | edc6 c4 B2A2  | z2A4c2 B2A2 G2F2  | \
w:  A *  lim  SAZ  |  A *  lim   SAZ  |  Boy lu  bo *  yun  | 
G6AB cdef g4  | 
w:  ca   SAZ  | 
a4 a2f2 gfga e4  | =fefg e2d2 e4 d2c2  | \
w:  Aç  kol *  la *  *  *  rın   |  sar  *  *  *  boy *  nu ma   | 
edd6 G2B2 d4  | 
w:  A *  lim  SAZ  | 
edc6 c4 B2A2  | z2A4c2 B2A2 G2F2  | G2g4fe dcBA G4  | 
w:  A *  lim   SAZ  |  Boy lu  bo *  yun  |  ca   SAZ  | 
|


